svgs/karwei.svg

<svg width="192" height="192" viewBox="0 0 192 192" fill="none" xmlns="http://www.w3.org/2000/svg">
<rect x="42" y="30" width="30" height="132" stroke="black" stroke-width="12"/>
<path d="M152 162V168L157.603 159.854L152 162ZM118 162L112.345 164.006L118 168V162ZM96 100L90.9202 96.807C89.9434 98.361 89.7316 100.277 90.3454 102.006L96 100ZM110.397 70.1459L146.397 164.146L157.603 159.854L121.603 65.8541L110.397 70.1459ZM152 156H118V168H152V156ZM123.655 159.994L101.655 97.9935L90.3454 102.006L112.345 164.006L123.655 159.994ZM101.08 103.193L145.08 33.193L134.92 26.807L90.9202 96.807L101.08 103.193Z" fill="black"/>
<path d="M30 30H84" stroke="black" stroke-width="12" stroke-linecap="round"/>
<path d="M114 30L152 30" stroke="black" stroke-width="12" stroke-linecap="round"/>
<path d="M30 162H84" stroke="black" stroke-width="12" stroke-linecap="round"/>
<path d="M104 162H162" stroke="black" stroke-width="12" stroke-linecap="round"/>
</svg>

<svg width="192" height="192" viewBox="0 0 192 192" fill="none" xmlns="http://www.w3.org/2000/svg"><path stroke="#000" stroke-width="12" d="M42 30h30v132H42z"/><path d="M152 162v6l5.603-8.146L152 162Zm-34 0-5.655 2.006L118 168v-6Zm-22-62-5.08-3.193a6 6 0 0 0-.575 5.199L96 100Zm14.397-29.854 36 94 11.206-4.292-36-94-11.206 4.292ZM152 156h-34v12h34v-12Zm-28.345 3.994-22-62-11.31 4.012 22 62 11.31-4.012Zm-22.575-56.801 44-70-10.16-6.386-44 70 10.16 6.386Z" fill="#000"/><path d="M30 30h54M114 30h38M30 162h54M104 162h58" stroke="#000" stroke-width="12" stroke-linecap="round"/></svg>
